X:1
T:Jesus Is Coming (Pepper)
T:Jesus Is Coming (Pepper)
T:Clarence Board Strouse
T:Eleuthera I. E. Pepper, 1901
T:Public Domain Courtesy of the Cyber Hymnal™
T:Public Domain Courtesy of the Cyber Hymnal™
C:Clarence Board Strouse
Z:Public Domain
Z:Courtesy of the Cyber Hymnal™
%%score ( 1 2 ) ( 3 4 )
L:1/8
Q:1/4=108
M:6/8
K:Ab
V:1 treble 
V:2 treble 
V:3 bass 
V:4 bass 
V:1
 E3 [EA]2 [EA] | [EA] [EA]4 [EA] | [EA]2 [DG] [DG]2 [DF] | [DG]3- [DG]2 z | [Ed]3 [Ec]2 [EB] | %5
w: 1.~Je- sus is|com- ing, The|prom- ise has been|giv’n, *|Je- sus is|
w: 2.~Je- sus is|com- ing, To|those who long for|Heav’n; *|Je- sus is|
w: 3.~Je- sus is|com- ing, To|those whose hearts are|riv’n; *|Je- sus is|
w: 4.~Je- sus is|com- ing, To|see Him we have|striv’n. *|Je- sus is|
 [EB] [DF]4 [EB] | [EB]2 [E=A] [EB]2 [E=B] | [Ec]3- [Ec]2 z | [CE]3 [CE]2 [CE] | [CE] [CE]4 [CA] | %10
w: com- ing, To|take us all to|Heav’n; *|Je- sus is|com- ing, The|
w: com- ing To|those whose all is|giv’n. *|Je- sus is|com- ing! Come|
w: com- ing, To|those with all for-|giv’n. *|Je- sus is|com- ing! Oh,|
w: com- ing, To|meet Him grace is|giv’n. *|Je- sus is|com- ing! No|
 [EA]2 [EG] [EA]2 [EG] | [DF]3- [DF]2 z | [=B,A]3 (G2 F) | [CF]2 [CE] !fermata![CA]2 [CA] | %14
w: ad- vent draw- eth|nigh; *|Oh, how *|glo- ri- ous, That|
w: quick- ly, Lord, we|cry; *|Oh, how *|glo- ri- ous, Thy|
w: let our tears be|dry; *|Oh, how *|glo- ri- ous, When|
w: long- er breathe a|sigh, *|Oh, how *|glo- ri- ous, He|
 [EA]2 [EA] [EG] !fermata![Ge]2 | [EA]6 ||"^Refrain" [Ac]3 [GB]2 [EA] | [EA] [EG]4 z | %18
w: we may ne- ver|die.|||
w: por- tents we es-|py.|||
w: we as- cend on|high.|||
w: com- eth from on|high.|||
 [GB]2 [EA] [CE]2 [CF] | [DG]3- [DG]2 z | [Ed]3 [Ec]2 [EB] | [DB] [DF]4 z | [DG]2 [DF] [DG]2 [DF] | %23
w: |||||
w: |||||
w: |||||
w: |||||
 [DE]3- [DE]2 z | [Ee]3 [Ec]2 [DB] | [CA] [EA]4 z | [EA][EA][EA] [DB]2 [Ec] | [Fd]3- [Fd]2 z | %28
w: |||||
w: |||||
w: |||||
w: |||||
 [Ed]3 [Ec]2 [EB] | [Ee] [Ec]4 z | [DE]2 [DE] [DB]2 [CA] | [CA]3- [CA]2 z |] %32
w: ||||
w: ||||
w: ||||
w: ||||
V:2
 E3 x3 | x6 | x6 | x6 | x6 | x6 | x6 | x6 | x6 | x6 | x6 | x6 | x3 =B,3 | x6 | x6 | x6 || x6 | x6 | %18
 x6 | x6 | x6 | x6 | x6 | x6 | x6 | x6 | x6 | x6 | x6 | x6 | x6 | x6 |] %32
V:3
 [A,C]3 [A,C]2 [A,C] | [A,C] [A,C]4 [A,C] | [E,C]2 [E,B,] [E,B,]2 [E,A,] | [E,B,]3- [E,B,]2 z | %4
w: ~ ~ ~|~ ~ ~|~ ~ ~ ~|~ *|
 [E,B,]3 [E,A,]2 [E,G,] | [E,G,] [E,A,]4 [E,G,] | [E,G,]2 [E,G,] [E,G,]2 [E,G,] | %7
w: ~ ~ ~|~ ~ ~|~ ~ ~ ~|
 [A,,A,]3- [A,,A,]2 z | [A,,A,]3 [A,,A,]2 [A,,A,] | [A,,A,] [A,,A,]4 [A,,A,] | %10
w: ~ *|~ ~ ~|~ ~ ~|
 [C,A,]2 [C,A,] [C,A,]2 [C,A,] | [D,A,]3- [D,A,]2 z | [=D,F,]3 (G,2 A,) | %13
w: ~ ~ ~ ~|~ *|~ ~ *|
 [E,A,]2 [E,A,] !fermata![F,A,]2 [F,A,] | [E,C]2 [E,C] [E,B,] !fermata![E,B,]2 | [A,,A,C]6 || %16
w: ~ ~ ~ ~|~ ~ ~ ~|~|
 [A,E]3 [A,D]2 [A,C] | [E,C] [E,B,]4 z | [E,D]2 [E,C] [E,A,]2 [E,A,] | [E,B,]3- [E,B,]2 z | %20
w: Je- sus is|com- ing,|Com- ing back a-|gain; *|
 [E,B,]3 [E,A,]2 [E,G,] | [E,G,] [E,G,]4 z | [E,B,]2 [E,A,] [E,B,]2 [E,A,] | [E,G,]3- [E,G,]2 z | %24
w: Je- sus is|com- ing,|Sing the sweet re-|frain; *|
 [C,A,]3 [A,,A,]2 [A,,A,] | [A,,A,] [A,,C]4 z | [C,A,][C,A,][C,A,] [D,F,]2 [C,=A,] | %27
w: Je- sus is|com- ing,|Com- ing to earth a-|
 [B,,B,]3- [B,,B,]2 z | [E,G,]3 [E,A,]2 [D,G,] | [C,A,] [A,,A,]4 z | %30
w: gain; *|Je- sus is|com- ing,|
 [E,G,]2 [E,G,] [E,G,]2 [A,,A,] | [A,,A,]3- [A,,A,]2 z |] %32
w: Com- ing back to|reign. *|
V:4
 x6 | x6 | x6 | x6 | x6 | x6 | x6 | x6 | x6 | x6 | x6 | x6 | x3 =D,3 | x6 | x6 | x6 || x6 | x6 | %18
 x6 | x6 | x6 | x6 | x6 | x6 | x6 | x6 | x6 | x6 | x6 | x6 | x6 | x6 |] %32

